X:19288
T:T (L'). CJF.002
T:L'T. CJF.002
M:2/4
L:1/8
Q:160
S: C.J.Fox MS, 1829/33, Beverley,E.Yorks.
R:Quadrille
O:England
A:East Yorkshire
B:Kidson Coll.Mitchell Lib.M1805
N:Part of the Quadrille 1st set. CGP.
Z:P J Headford 2000
K:G
dg|fd ee|d2ce|Bd Ac|BG dg|fd ee|d2c/d/e/c/|Bd cA|
G2||!Bd|e/^d/c/B/ e/f/g/a/|fB .b(b/g/)|.a(a/f/) .g(g/e/)|B2bb|"tr"g2aa|"
tr"f2a/g/f/g/|\
eg f^d|e2:||!dg|fd ee|
d2ce|Bd Ac|BG dg|fd ee|d2c/d/e/c/|Bd cA|G2||
